NotoEmoji/emoji_u1f4eb.svg

<svg enable-background="new 0 0 128 128" viewBox="0 0 128 128" xmlns="http://www.w3.org/2000/svg"><path d="m63.13 84.17h18.31v39.83h-18.31z" fill="#c87d5e"/><path d="m81.45 94.23c-1.64-2.66-3.81-4.93-6.55-6.41-1.7-.92-3.58-1.45-5.49-1.64h-3.19c-1.04.1-2.08.3-3.08.6v20.13c.89-1.36 2.37-2.34 3.97-2.72 2.79-.65 5.75.42 8.01 2.17s3.95 4.13 5.6 6.46c.25.35.49.69.74 1.04v-19.63z" fill="#874d36"/><path d="m97.55 25.09h-68.61s23.58 2.89 23.58 22.78l.12 50.48h66.52c2.67 0 4.83-2.16 4.83-4.83v-41.98c.01-14.61-11.83-26.45-26.44-26.45z" fill="#1976d2"/><path d="m83.47 34.01-8.14.28-11.86 18.18s0-9.63 0-14.75c0-7.88-8-12.64-8-12.64h31.16l.16.16c3.27 3.11 1.18 8.61-3.32 8.77z" fill="#0d47a1"/><ellipse cx="74.21" cy="54.06" fill="#0d47a1" rx="8.14" ry="9.16"/><path d="m66.88 10.11.03 41.56c0 1.4 1.13 2.53 2.53 2.53h5.11c1.4 0 2.53-1.13 2.53-2.53v-47.67h-4.1c-3.36 0-6.1 2.73-6.1 6.11z" fill="#c62828"/><path d="m69.12 10.11.03 41.56h8.17v-32.18h14.08c3.25 0 3.63-1.41 3.63-7.55s-.38-7.94-3.63-7.94h-16.18c-3.37 0-6.1 2.73-6.1 6.11z" fill="#f44336"/><path d="m74.39 10.88c-.07 1.99-1.37 20.01-1.6 23.39-.28 4.09-2.64 4.51-2.64.79v-24.36c0-3.94 4.39-4.15 4.24.18z" fill="#ff7555"/><path d="m73.37 42.44.07 18.31s-1.92 0-4.12 0c-4.05 0-7.33-4.1-7.33-9.16s3.28-9.16 7.33-9.16c4.05.01 4.05.01 4.05.01z" fill="#82aec0"/><ellipse cx="73.4" cy="51.59" fill="#e0e0e0" rx="7.33" ry="9.16"/><path d="m69.02 51.86c.44.22.97-.02 1.35-.34 1.16-.97 1.6-2.57 2.67-3.63.94-.94 2.37-1.86 1.25-3.25-.81-1-2.21-.89-3.25-.37-2.37 1.16-4.25 6.47-2.02 7.59z" fill="#fff"/><path d="m25.52 25.09-.47 73.25 28.51.01c1.17 0 2.13-.95 2.13-2.13v-48.36c0-12.29-7.66-22.3-21.15-22.76-.32-.01-8.69-.01-9.02-.01z" fill="#4fc3f7"/><path d="m26.12 25.09c-15.77 0-22.12 9.71-22.12 22.77v47.89c0 1.42 1.15 2.58 2.58 2.58l42.57.01c1.17 0 2.13-.95 2.13-2.13v-48.35c-.01-13.06-9.39-22.77-25.16-22.77z" fill="#1976d2"/><path d="m33.19 46.01h-10.88c-1.16 0-2.09-.94-2.09-2.09v-6.65h15.07v6.65c-.01 1.15-.94 2.09-2.1 2.09z" fill="#0d47a1"/><path d="m34.54 36.05h-15.72c-1.04 0-2.51.6-2.51 2.44v3.02c0 1.04.85 1.89 1.89 1.89h11.13c1.04 0 1.89-.85 1.89-1.89v-.75c0-1.01.82-1.83 1.83-1.83h1.5c.46 0 .83-.37.83-.83v-1.22c0-.45-.38-.83-.84-.83z" fill="#4fc3f7"/><path d="m30.38 37.77c-.17.29-.47.49-.8.49h-12.25s.09-1.63 1.47-1.63h12.48c.11 0 .15.15.06.21-.53.36-.81.68-.96.93z" fill="#fff" opacity=".57"/></svg>

<?xml version="1.0" encoding="utf-8"?>
<!-- Generator: Adobe Illustrator 25.2.3, SVG Export Plug-In . SVG Version: 6.00 Build 0)  -->
<svg version="1.1" id="Layer_4" xmlns="http://www.w3.org/2000/svg" xmlns:xlink="http://www.w3.org/1999/xlink" x="0px" y="0px"
	 viewBox="0 0 128 128" style="enable-background:new 0 0 128 128;" xml:space="preserve">
<g>
	<g>
		<rect x="63.13" y="84.17" style="fill:#C87D5E;" width="18.31" height="39.83"/>
		<path style="fill:#874D36;" d="M81.45,94.23c-1.64-2.66-3.81-4.93-6.55-6.41c-1.7-0.92-3.58-1.45-5.49-1.64h-3.19
			c-1.04,0.1-2.08,0.3-3.08,0.6v20.13c0.89-1.36,2.37-2.34,3.97-2.72c2.79-0.65,5.75,0.42,8.01,2.17c2.26,1.75,3.95,4.13,5.6,6.46
			c0.25,0.35,0.49,0.69,0.74,1.04V94.23z"/>
		<g>
			<path style="fill:#1976D2;" d="M97.55,25.09H28.94c0,0,23.58,2.89,23.58,22.78l0.12,50.48h66.52c2.67,0,4.83-2.16,4.83-4.83
				V51.54C124,36.93,112.16,25.09,97.55,25.09z"/>
		</g>
		<path style="fill:#0D47A1;" d="M83.47,34.01l-8.14,0.28L63.47,52.47c0,0,0-9.63,0-14.75c0-7.88-8-12.64-8-12.64h31.16l0.16,0.16
			C90.06,28.35,87.97,33.85,83.47,34.01z"/>
		<ellipse style="fill:#0D47A1;" cx="74.21" cy="54.06" rx="8.14" ry="9.16"/>
		<path style="fill:#C62828;" d="M66.88,10.11l0.03,41.56c0,1.4,1.13,2.53,2.53,2.53h5.11c1.4,0,2.53-1.13,2.53-2.53V4l-4.1,0
			C69.62,4,66.88,6.73,66.88,10.11z"/>
		<path style="fill:#F44336;" d="M69.12,10.11l0.03,41.56h8.17V19.49H91.4c3.25,0,3.63-1.41,3.63-7.55S94.65,4,91.4,4H75.22
			C71.85,4,69.12,6.73,69.12,10.11z"/>
		<path style="fill:#FF7555;" d="M74.39,10.88c-0.07,1.99-1.37,20.01-1.6,23.39c-0.28,4.09-2.64,4.51-2.64,0.79V10.7
			C70.15,6.76,74.54,6.55,74.39,10.88z"/>
		<path style="fill:#82AEC0;" d="M73.37,42.44l0.07,18.31c0,0-1.92,0-4.12,0c-4.05,0-7.33-4.1-7.33-9.16s3.28-9.16,7.33-9.16
			C73.37,42.44,73.37,42.44,73.37,42.44z"/>
		<ellipse style="fill:#E0E0E0;" cx="73.4" cy="51.59" rx="7.33" ry="9.16"/>
		<path style="fill:#FFFFFF;" d="M69.02,51.86c0.44,0.22,0.97-0.02,1.35-0.34c1.16-0.97,1.6-2.57,2.67-3.63
			c0.94-0.94,2.37-1.86,1.25-3.25c-0.81-1-2.21-0.89-3.25-0.37C68.67,45.43,66.79,50.74,69.02,51.86z"/>
		<path style="fill:#4FC3F7;" d="M25.52,25.09l-0.47,73.25l28.51,0.01c1.17,0,2.13-0.95,2.13-2.13V47.86
			c0-12.29-7.66-22.3-21.15-22.76C34.22,25.09,25.85,25.09,25.52,25.09z"/>
		<g>
			<path style="fill:#1976D2;" d="M26.12,25.09C10.35,25.09,4,34.8,4,47.86v47.89c0,1.42,1.15,2.58,2.58,2.58l42.57,0.01
				c1.17,0,2.13-0.95,2.13-2.13V47.86C51.27,34.8,41.89,25.09,26.12,25.09z"/>
		</g>
		<path style="fill:#0D47A1;" d="M33.19,46.01H22.31c-1.16,0-2.09-0.94-2.09-2.09v-6.65h15.07v6.65
			C35.28,45.07,34.35,46.01,33.19,46.01z"/>
		<path style="fill:#4FC3F7;" d="M34.54,36.05H18.82c-1.04,0-2.51,0.6-2.51,2.44v3.02c0,1.04,0.85,1.89,1.89,1.89h11.13
			c1.04,0,1.89-0.85,1.89-1.89v-0.75c0-1.01,0.82-1.83,1.83-1.83h1.5c0.46,0,0.83-0.37,0.83-0.83v-1.22
			C35.38,36.43,35,36.05,34.54,36.05z"/>
		<path style="opacity:0.57;fill:#FFFFFF;" d="M30.38,37.77c-0.17,0.29-0.47,0.49-0.8,0.49H17.33c0,0,0.09-1.63,1.47-1.63h12.48
			c0.11,0,0.15,0.15,0.06,0.21C30.81,37.2,30.53,37.52,30.38,37.77z"/>
	</g>
</g>
</svg>
